img/fit.svg

<svg width="190" height="94" viewBox="0 0 190 94" fill="none" xmlns="http://www.w3.org/2000/svg">
<rect x="1" y="1.17859" width="188" height="91.6429" rx="11" fill="white" stroke="black" stroke-width="2"/>
<path d="M107.062 62.2463C106.875 62.0591 106.75 61.7474 106.75 61.3726V58.8787C106.75 58.1223 107.157 57.3829 107.997 57.3829C108.371 57.3829 108.683 57.5077 108.87 57.6946C109.057 57.8817 109.12 58.1935 109.12 58.5052L108.559 58.63C108.559 58.3804 108.496 58.2558 108.434 58.1311C108.371 58.0065 108.184 57.9433 107.997 57.9433C107.696 57.9433 107.436 58.1185 107.436 58.4429V61.498C107.436 61.7541 107.666 61.9961 107.935 61.9961C108.122 61.9961 108.247 61.9345 108.371 61.8097C108.434 61.6844 108.496 61.498 108.496 61.2487L109.057 61.3726C109.057 61.7474 108.933 61.9961 108.746 62.2463C108.349 62.6426 107.453 62.6376 107.062 62.2463V62.2463ZM167.853 60.0016V61.8722C168.495 61.8722 168.999 61.9419 169.054 61.3009C169.106 60.6858 169.05 60.0016 168.29 60.0016H167.853ZM149.024 60.0016V61.8722H149.46C149.647 61.8722 149.922 61.8722 149.985 61.8097C150.54 61.5316 150.556 60.3501 149.985 60.0639C149.86 60.0016 149.585 60.0016 149.398 60.0016H149.024ZM46.7074 60.0016V61.8722H47.144C47.3309 61.8722 47.4555 61.8722 47.518 61.8097C47.6428 61.7474 47.7051 61.6844 47.7674 61.6228C47.8297 61.5603 47.8297 61.4357 47.8921 61.311V60.5628C47.8921 60.4376 47.8297 60.3756 47.7674 60.251C47.7051 60.1887 47.6428 60.1262 47.518 60.0639C47.3934 60.0016 47.2686 60.0016 47.0815 60.0016H46.7074V60.0016ZM61.4843 58.1935V61.5603C61.6714 61.5603 61.796 61.498 61.9208 61.3726C62.0454 61.2487 62.1079 61.0609 62.1079 60.8745V58.8787C62.1079 58.6923 62.0454 58.5052 61.9208 58.3804C61.796 58.2558 61.6091 58.1935 61.4843 58.1935V58.1935ZM60.861 58.1935C60.6737 58.1935 60.5491 58.2558 60.4244 58.3804C60.2998 58.5052 60.2375 58.63 60.2375 58.8787V60.8745C60.2375 61.0609 60.2998 61.2487 60.3621 61.3726C60.4244 61.498 60.6116 61.5603 60.861 61.5603V58.1935V58.1935ZM167.916 57.9433V59.5652H168.29C169.35 59.5652 169.311 57.9433 168.29 57.9433H167.916ZM149.086 59.4406H149.148H149.086ZM28.252 62.4332V57.4452H30.3717V57.9433H28.813V59.6275H30.1847V60.1262H28.813V61.8722H30.3717V62.3709H28.252V62.4332V62.4332ZM38.4772 62.4332H37.916V57.9433H37.0432V57.3829H39.2879V57.8817H38.4772V62.4332ZM47.2686 62.4332H46.2086V57.4452H46.7699V59.4406H47.2061C47.4555 59.4406 47.7051 59.5022 47.8921 59.5652C48.079 59.6275 48.2038 59.7522 48.2663 59.8769C48.3909 60.0016 48.4532 60.1887 48.4532 60.3135C48.5157 60.5004 48.5157 60.6874 48.5157 60.8745C48.5157 61.1241 48.5157 61.311 48.4532 61.498C48.3909 61.6844 48.3284 61.8722 48.2663 61.9961C48.1415 62.1216 48.0167 62.2463 47.8921 62.308C47.7051 62.3709 47.518 62.4332 47.2686 62.4332V62.4332ZM61.422 62.4332H60.861V62.0591C60.7362 62.0591 60.5491 61.9961 60.4244 61.9961C60.2998 61.9345 60.175 61.8722 60.0504 61.7474C59.9256 61.6228 59.8633 61.5603 59.8008 61.3726C59.7387 61.2487 59.6762 61.0609 59.6762 60.8745V58.8787C59.6762 58.6923 59.7387 58.5052 59.8008 58.3804C59.8633 58.2558 59.9881 58.1311 60.0504 58.0065C60.175 57.8817 60.2998 57.8192 60.4244 57.7571C60.5491 57.6946 60.7362 57.6946 60.861 57.6946V57.3829H61.422V57.6318C61.5466 57.6318 61.6714 57.6946 61.8585 57.6946C61.9833 57.7571 62.1079 57.8192 62.2326 57.9433C62.3572 58.0689 62.4195 58.1311 62.482 58.3183C62.5443 58.4429 62.6066 58.63 62.6066 58.817V60.8745H62.6689C62.6689 61.0609 62.6066 61.2487 62.5443 61.3726C62.482 61.498 62.3572 61.6228 62.2326 61.7474C62.1079 61.8722 61.9833 61.9345 61.8585 61.9961C61.7339 62.0591 61.5466 62.0591 61.422 62.0591V62.4332ZM72.1462 62.4332H71.585V58.8787L70.3381 62.4332H69.7769V57.4452H70.3381V60.9991L71.585 57.4452H72.1462V62.4332ZM80.4387 62.4332H79.8776V57.9433H79.0047V57.3829H81.2493V57.8817H80.4387V62.4332ZM89.916 62.4332V60.1262H88.7937V62.4332H88.2325V57.4452H88.7937V59.6275H89.9783V57.3829H90.5395V62.3709H89.916V62.4332ZM97.772 62.4332V57.4452H99.892V57.9433H98.3331V59.6275H99.7049V60.1262H98.3331V61.8722H99.892V62.3709H97.772V62.4332V62.4332ZM122.774 62.4332H122.338L121.403 60.0016L120.904 60.9368V62.3709H120.343V57.3829H120.904V59.8769L122.088 57.3829H122.65L121.652 59.3781L122.774 62.4332V62.4332ZM149.585 62.4332H148.587V57.4452H150.582V57.9433H149.148V59.4406C149.547 59.4406 149.814 59.4323 150.208 59.5652C151.05 59.8456 151.064 61.8848 150.208 62.308C150.021 62.3709 149.834 62.4332 149.585 62.4332V62.4332ZM168.29 62.4332H167.355V57.4452H168.414C168.851 57.4452 169.163 57.5698 169.35 57.8192C169.816 58.4411 169.725 59.2936 169.038 59.7522C169.528 59.8735 169.653 60.5612 169.653 60.9902C169.653 61.4891 169.475 61.8097 169.287 62.0591C169.1 62.308 168.726 62.4332 168.29 62.4332V62.4332ZM129.633 62.4957L129.383 62.0591C129.563 61.9686 129.856 61.6766 129.944 61.498C130.11 61.1654 130.132 60.6171 130.132 60.251V57.3829H132.251V62.3709H131.69V57.8817H130.693V59.8769C130.693 60.6804 130.55 62.1897 129.633 62.4957ZM139.609 62.4957H139.297V62.0591H139.546C139.979 62.0591 140.103 61.4593 140.17 61.1241L139.11 57.4452H139.671L140.419 60.1887L141.105 57.3829H141.666L140.669 61.2487C140.596 61.6121 140.439 62.0421 140.17 62.308C140.069 62.4099 139.745 62.4957 139.609 62.4957V62.4957Z" fill="#2B2B2A" stroke="#2B2B2A" stroke-width="0.1693" stroke-miterlimit="22.9256"/>
<path d="M107.062 62.2463C106.875 62.0591 106.75 61.7474 106.75 61.3726V58.8787C106.75 58.1223 107.156 57.3829 107.997 57.3829C108.371 57.3829 108.683 57.5077 108.87 57.6946C109.057 57.8817 109.119 58.1935 109.119 58.5052L108.558 58.63C108.558 58.2422 108.428 57.9433 107.997 57.9433C107.696 57.9433 107.436 58.1185 107.436 58.4429V61.498C107.436 61.7541 107.666 61.9961 107.935 61.9961C108.122 61.9961 108.246 61.9345 108.371 61.8097C108.433 61.6844 108.496 61.498 108.496 61.2487L109.057 61.3726C109.057 61.7474 108.932 61.9961 108.745 62.2463C108.349 62.6426 107.453 62.6376 107.062 62.2463V62.2463Z" fill="#2B2B2A" stroke="#2B2B2A" stroke-width="0.1693" stroke-miterlimit="22.9256"/>
<path d="M155.883 35.2488C155.883 35.6228 156.382 35.7475 156.694 35.8723C157.442 36.1217 158.252 36.184 159 36.3087C160.871 36.5581 162.804 36.6829 164.674 36.9946C165.485 37.1192 166.358 37.3062 167.168 37.4933C167.854 37.6804 168.602 37.9298 169.226 38.3039C170.348 39.1145 170.41 40.5485 169.537 41.546C168.727 42.419 167.168 42.9801 165.921 43.2294C164.425 43.5413 162.866 43.6036 161.37 43.6661C158.252 43.7907 155.135 43.6661 152.017 43.2919C151.207 43.1673 150.833 43.1048 150.833 43.1048L149.773 41.4214C149.773 41.4214 150.209 41.4838 151.02 41.6084C152.641 41.9203 154.262 42.1072 155.883 42.1696C157.566 42.2319 159.25 42.2944 160.871 42.1072C161.806 41.9826 163.427 41.7957 163.552 40.6109C163.739 39.3014 162.18 38.9897 161.245 38.8027C158.252 38.3039 155.135 38.3662 152.142 37.5558C151.02 37.2439 149.71 36.745 149.586 35.4357C149.461 33.9393 151.331 33.2536 152.516 33.0042C154.761 32.5055 157.068 32.3182 159.312 32.3182H159.403C161.306 32.3203 163.208 32.3826 165.111 32.5055C166.67 32.6301 167.729 32.7549 168.228 32.817L169.351 34.6253L168.228 34.4382C165.984 34.0017 163.739 33.8771 161.494 33.8771C160.372 33.8771 159.25 33.8771 158.065 34.0017C157.255 34.1888 156.07 34.3134 155.883 35.2488V35.2488ZM19 43.6661V32.443H38.2911V33.9393H25.5093V36.9946H36.2334V38.4285H25.5093V43.6661H19ZM45.9601 43.6661V36.745L39.8498 43.6661H45.9601ZM48.454 33.9393H55.2502V43.6661H61.4228V33.9393H68.78V32.443H49.7633L48.454 33.9393V33.9393ZM39.8498 32.443V39.6133L45.9601 32.443H39.8498ZM141.729 39.8003C141.729 40.4237 141.542 42.2944 137.116 42.2944C132.626 42.2944 132.502 40.4237 132.502 39.8003V32.443H126.391V39.738C126.391 41.6707 126.953 43.6661 137.053 43.6661C146.156 43.6661 147.653 41.4838 147.653 39.6133V32.443H141.667V39.8003H141.729V39.8003ZM110.555 32.443H110.305L115.543 38.7402H106.564L102.511 43.6661H105.754L108.559 40.1743H116.665L119.595 43.6661H126.08L116.602 32.443H110.555V32.443ZM94.967 36.9946H85.9887V32.443H79.816V43.6661H85.9887V38.4285H94.967V43.6661H101.015V32.443H94.967V36.9946Z" fill="#2B2B2A"/>
<path fill-rule="evenodd" clip-rule="evenodd" d="M158.874 57.3694H159.207C159.723 57.3694 160.145 57.7914 160.145 58.3073V61.5827C160.145 62.0986 159.723 62.5206 159.207 62.5206H158.874C158.358 62.5206 157.936 62.0986 157.936 61.5827V58.3073C157.936 57.7914 158.358 57.3694 158.874 57.3694ZM159.049 57.9147H159.049C159.4 57.9147 159.686 58.201 159.686 58.5511V61.4044C159.686 61.7545 159.4 62.041 159.049 62.041H159.049C158.699 62.041 158.413 61.7545 158.413 61.4044V58.5511C158.413 58.201 158.699 57.9147 159.049 57.9147Z" fill="#2B2B2A" stroke="#2B2B2A" stroke-width="0.3387" stroke-miterlimit="22.9256"/>
<path d="M19.3118 62.2463C19.1248 62.0591 19 61.7474 19 61.3726V58.8787C19 58.1223 19.4062 57.3829 20.247 57.3829C20.621 57.3829 20.9329 57.5077 21.1199 57.6946C21.307 57.8817 21.3693 58.1935 21.3693 58.5052L20.8083 58.63C20.8083 58.2422 20.6783 57.9433 20.247 57.9433C19.9461 57.9433 19.686 58.1185 19.686 58.4429V61.498C19.686 61.7541 19.9157 61.9961 20.1847 61.9961C20.6361 61.9961 20.7458 61.6362 20.7458 61.2487L21.307 61.3726C21.307 61.7474 21.1822 61.9961 20.9952 62.2463C20.5989 62.6426 19.7031 62.6376 19.3118 62.2463V62.2463Z" fill="#2B2B2A" stroke="#2B2B2A" stroke-width="0.1693" stroke-miterlimit="22.9256"/>
</svg>

<svg xmlns="http://www.w3.org/2000/svg" fill="none" viewBox="0 0 190 94"><rect width="188" height="91.643" x="1" y="1.179" fill="#fff" stroke="#000" stroke-width="2" rx="11"/><path fill="#2B2B2A" stroke="#2B2B2A" stroke-miterlimit="22.926" stroke-width=".169" d="M107.062 62.246c-.187-.187-.312-.499-.312-.873v-2.494c0-.757.407-1.496 1.247-1.496.374 0 .686.125.873.312.187.187.25.498.25.81l-.561.125c0-.25-.063-.374-.125-.499-.063-.124-.25-.188-.437-.188-.301 0-.561.175-.561.5v3.055c0 .256.23.498.499.498a.563.563 0 0 0 .436-.186c.063-.126.125-.312.125-.561l.561.124c0 .374-.124.623-.311.873-.397.397-1.293.392-1.684 0v0zm60.791-2.244v1.87c.642 0 1.146.07 1.201-.571.052-.615-.004-1.3-.764-1.3h-.437zm-18.829 0v1.87h.436c.187 0 .462 0 .525-.062.555-.278.571-1.46 0-1.746-.125-.062-.4-.062-.587-.062h-.374zm-102.317 0v1.87h.437c.187 0 .312 0 .374-.062.125-.063.187-.126.25-.187.062-.063.062-.187.124-.312v-.748c0-.125-.062-.187-.125-.312-.062-.062-.124-.125-.249-.187s-.25-.062-.437-.062h-.374v0zm14.777-1.809v3.367a.564.564 0 0 0 .437-.187.707.707 0 0 0 .187-.498v-1.996a.709.709 0 0 0-.187-.499.674.674 0 0 0-.437-.187v0zm-.623 0a.566.566 0 0 0-.437.187c-.124.125-.187.25-.187.499v1.995c0 .187.063.375.125.499.062.125.25.187.499.187v-3.367 0zm107.055-.25v1.622h.374c1.06 0 1.021-1.622 0-1.622h-.374zm-18.83 1.498h.062-.062zM28.252 62.433v-4.988h2.12v.498h-1.559v1.684h1.372v.5h-1.372v1.745h1.559v.499h-2.12v.062zm10.225 0h-.561v-4.49h-.873v-.56h2.245v.499h-.81v4.551zm8.792 0h-1.06v-4.988h.56v1.996h.437c.25 0 .5.061.686.124a.64.64 0 0 1 .374.312.674.674 0 0 1 .187.436c.063.187.063.374.063.561 0 .25 0 .437-.063.624-.062.186-.125.374-.187.498-.124.126-.25.25-.374.312a1.83 1.83 0 0 1-.623.125v0zm14.153 0h-.561v-.374c-.125 0-.312-.063-.437-.063a1.283 1.283 0 0 1-.374-.249c-.124-.124-.187-.187-.25-.374a1.174 1.174 0 0 1-.124-.498v-1.996c0-.187.063-.374.125-.499.062-.124.187-.249.25-.373.124-.125.249-.188.373-.25.125-.062.312-.062.437-.062v-.312h.561v.249c.125 0 .25.063.437.063.124.062.249.124.374.248.124.126.187.188.249.375.062.125.125.312.125.499v2.057h.062c0 .187-.062.375-.125.499-.062.125-.187.25-.311.374-.125.125-.25.188-.374.25-.125.062-.312.062-.437.062v.374zm10.724 0h-.561V58.88l-1.247 3.554h-.561v-4.988h.561V61l1.247-3.554h.561v4.988zm8.293 0h-.561v-4.49h-.873v-.56h2.244v.499h-.81v4.551zm9.477 0v-2.307h-1.122v2.307h-.561v-4.988h.56v2.182h1.185v-2.244h.562v4.988h-.624v.062zm7.856 0v-4.988h2.12v.498h-1.559v1.684h1.372v.5h-1.372v1.745h1.559v.499h-2.12v.062zm25.002 0h-.436l-.935-2.431-.499.935v1.434h-.561v-4.988h.561v2.494l1.184-2.494h.562l-.998 1.995 1.122 3.055v0zm26.811 0h-.998v-4.988h1.995v.498h-1.434v1.498c.399 0 .666-.009 1.06.124.842.28.856 2.32 0 2.743a1.83 1.83 0 0 1-.623.125v0zm18.705 0h-.935v-4.988h1.059c.437 0 .749.125.936.374.466.622.375 1.475-.312 1.933.49.121.615.81.615 1.238 0 .5-.178.82-.366 1.07-.187.248-.561.373-.997.373v0zm-38.657.063l-.25-.437c.18-.09.473-.382.561-.561.166-.333.188-.88.188-1.247v-2.868h2.119v4.988h-.561v-4.49h-.997v1.996c0 .803-.143 2.313-1.06 2.619zm9.976 0h-.312v-.437h.249c.433 0 .557-.6.624-.935l-1.06-3.679h.561l.748 2.744.686-2.806h.561l-.997 3.866c-.073.363-.23.793-.499 1.059-.101.102-.425.188-.561.188v0z"/><path fill="#2B2B2A" stroke="#2B2B2A" stroke-miterlimit="22.926" stroke-width=".169" d="M107.062 62.246c-.187-.187-.312-.499-.312-.873v-2.494c0-.757.406-1.496 1.247-1.496.374 0 .686.125.873.312.187.187.249.498.249.81l-.561.125c0-.388-.13-.687-.561-.687-.301 0-.561.175-.561.5v3.055c0 .256.23.498.499.498a.565.565 0 0 0 .436-.186c.062-.126.125-.312.125-.561l.561.124c0 .374-.125.623-.312.873-.396.397-1.292.392-1.683 0v0z"/><path fill="#2B2B2A" d="M155.883 35.249c0 .374.499.498.811.623.748.25 1.558.312 2.306.437 1.871.25 3.804.374 5.674.686.811.124 1.684.311 2.494.498.686.187 1.434.437 2.058.81 1.122.812 1.184 2.245.311 3.243-.81.873-2.369 1.434-3.616 1.683-1.496.312-3.055.375-4.551.437-3.118.125-6.235 0-9.353-.374-.81-.125-1.184-.187-1.184-.187l-1.06-1.684s.436.063 1.247.187c1.621.312 3.242.5 4.863.562 1.683.062 3.367.124 4.988-.063.935-.124 2.556-.311 2.681-1.496.187-1.31-1.372-1.621-2.307-1.808-2.993-.5-6.11-.437-9.103-1.247-1.122-.312-2.432-.811-2.556-2.12-.125-1.497 1.745-2.182 2.93-2.432 2.245-.498 4.552-.686 6.796-.686h.091c1.903.002 3.805.065 5.708.188 1.559.124 2.618.249 3.117.311l1.123 1.808-1.123-.187c-2.244-.436-4.489-.56-6.734-.56-1.122 0-2.244 0-3.429.124-.81.187-1.995.311-2.182 1.247zM19 43.666V32.443h19.291v1.496H25.51v3.056h10.724v1.434H25.51v5.237H19zm26.96 0v-6.921l-6.11 6.921h6.11zm2.494-9.727h6.796v9.727h6.173V33.94h7.357v-1.496H49.763l-1.309 1.496zm-8.604-1.496v7.17l6.11-7.17h-6.11zM141.729 39.8c0 .624-.187 2.494-4.613 2.494-4.49 0-4.614-1.87-4.614-2.494v-7.357h-6.111v7.295c0 1.933.562 3.928 10.662 3.928 9.103 0 10.6-2.182 10.6-4.053v-7.17h-5.986V39.8h.062zm-31.174-7.357h-.25l5.238 6.297h-8.979l-4.053 4.926h3.243l2.805-3.492h8.106l2.93 3.492h6.485l-9.478-11.223h-6.047zm-15.588 4.552h-8.978v-4.552h-6.173v11.223h6.173V38.43h8.978v5.237h6.048V32.443h-6.048v4.552z"/><path fill="#2B2B2A" fill-rule="evenodd" stroke="#2B2B2A" stroke-miterlimit="22.926" stroke-width=".339" d="M158.874 57.37h.333a.94.94 0 0 1 .938.937v3.276a.94.94 0 0 1-.938.938h-.333a.94.94 0 0 1-.938-.938v-3.276a.94.94 0 0 1 .938-.938zm.175.545h0c.351 0 .637.286.637.636v2.853c0 .35-.286.637-.637.637h0a.638.638 0 0 1-.636-.637v-2.853c0-.35.286-.636.636-.636z" clip-rule="evenodd"/><path fill="#2B2B2A" stroke="#2B2B2A" stroke-miterlimit="22.926" stroke-width=".169" d="M19.312 62.246c-.187-.187-.312-.499-.312-.873v-2.494c0-.757.406-1.496 1.247-1.496.374 0 .686.125.873.312.187.187.25.498.25.81l-.562.125c0-.388-.13-.687-.561-.687-.3 0-.561.175-.561.5v3.055c0 .256.23.498.499.498.451 0 .56-.36.56-.747l.562.124c0 .374-.125.623-.312.873-.396.397-1.292.392-1.683 0v0z"/></svg>
